cssgg/tree.svg

<svg
  width="24"
  height="24"
  viewBox="0 0 24 24"
  fill="none"
  xmlns="http://www.w3.org/2000/svg"
>
  <path
    fill-rule="evenodd"
    clip-rule="evenodd"
    d="M11 17.9C8.71776 17.4367 7 15.419 7 13V7C7 4.23858 9.23858 2 12 2C14.7614 2 17 4.23858 17 7V13C17 15.419 15.2822 17.4367 13 17.9V21C13 21.5523 12.5523 22 12 22C11.4477 22 11 21.5523 11 21V17.9ZM12 4C13.6569 4 15 5.34315 15 7V13C15 14.3062 14.1652 15.4175 13 15.8293V11C13 10.4477 12.5523 10 12 10C11.4477 10 11 10.4477 11 11V15.8293C9.83481 15.4175 9 14.3062 9 13V7C9 5.34315 10.3431 4 12 4Z"
    fill="currentColor"
  />
</svg>

<svg viewBox="0 0 24 24" xmlns="http://www.w3.org/2000/svg"><path fill-rule="evenodd" d="M11 17.9c-2.29-.47-4-2.49-4-4.9V7c0-2.77 2.23-5 5-5 2.76 0 5 2.23 5 5v6c0 2.41-1.72 4.43-4 4.9V21c0 .55-.45 1-1 1 -.56 0-1-.45-1-1v-3.1ZM12 4c1.65 0 3 1.34 3 3v6c0 1.3-.84 2.41-2 2.82v-4.83c0-.56-.45-1-1-1 -.56 0-1 .44-1 1v4.82c-1.17-.42-2-1.53-2-2.83v-6c0-1.66 1.34-3 3-3Z"/></svg>
